Source Code/mun/assets/flags/TZA.svg

<svg viewBox="0 0 40.5 40.5" xmlns="http://www.w3.org/2000/svg"><path d="m31.27 3.27-30.95 20.63a20.91 20.91 0 0 1 -.32-3.65 20.24 20.24 0 0 1 31.27-17z" fill="#1eb53a"/><path d="m39.5 14-32.43 21.61a20.11 20.11 0 0 1 -6.07-9.11l32.43-21.61a20.11 20.11 0 0 1 6.07 9.11z"/><path d="m40.5 20.25a20.24 20.24 0 0 1 -31.27 17l31-20.63a20.91 20.91 0 0 1 .27 3.63z" fill="#00a3dd"/><g fill="#fcd116"><path d="m33.43 4.89-32.43 21.61a20.68 20.68 0 0 1 -.68-2.6l31-20.63a17.63 17.63 0 0 1 2.11 1.62z"/><path d="m40.18 16.6-30.95 20.63a17.63 17.63 0 0 1 -2.16-1.62l32.43-21.61a20.68 20.68 0 0 1 .68 2.6z"/></g></svg>

<svg xmlns="http://www.w3.org/2000/svg" viewBox="0 0 40.5 40.5"><defs><style>.cls-1{fill:#1eb53a;}.cls-2{fill:#00a3dd;}.cls-3{fill:#fcd116;}</style></defs><g id="Ebene_2" data-name="Ebene 2"><g id="Ńëîé_1" data-name="Ńëîé 1"><path class="cls-1" d="M31.27,3.27.32,23.9A20.91,20.91,0,0,1,0,20.25a20.24,20.24,0,0,1,31.27-17Z"/><path d="M39.5,14,7.07,35.61A20.11,20.11,0,0,1,1,26.5L33.43,4.89A20.11,20.11,0,0,1,39.5,14Z"/><path class="cls-2" d="M40.5,20.25a20.24,20.24,0,0,1-31.27,17l31-20.63A20.91,20.91,0,0,1,40.5,20.25Z"/><path class="cls-3" d="M33.43,4.89,1,26.5a20.68,20.68,0,0,1-.68-2.6l31-20.63A17.63,17.63,0,0,1,33.43,4.89Z"/><path class="cls-3" d="M40.18,16.6,9.23,37.23a17.63,17.63,0,0,1-2.16-1.62L39.5,14A20.68,20.68,0,0,1,40.18,16.6Z"/></g></g></svg>
